X:1
T:Gurgaon, 87.87 D
T:Gurgaon, 87.87 D
T:Henry Carson Clausen, 1918
T:Public Domain Courtesy of the Cyber Hymnal™
C:Henry Carson Clausen, 1918
Z:Public Domain
Z:Courtesy of the Cyber Hymnal™
%%score 1 ( 2 3 )
L:1/8
Q:1/4=140
M:6/4
K:F
V:1 treble 
V:2 bass 
V:3 bass 
V:1
 A2 G2 B2 A2 C3 G | F6 E6 | B2 c2 B2 D2 E3 G | C12 | D2 E2 F2 G2 F3 D | C6 A6 | A2 G2 G2 D2 E3 F | %7
 G12 | A2 G2 B2 A2 C3 G | F6 E6 | B2 B2 B2 B2 c3 B | A12 | D2 E2 F2 G2 F3 D | C6 A6 | %14
 c2 c2 B2 A2 C3 G | F12 |] %16
V:2
 C2 B,2 D2 C2 A,3 B, | [C,,C,A,]6 [C,,C,G,]6 | D2 E2 D2 B,2 B,3 B, | [F,,F,A,]12 | %4
 B,2 B,2 B,2 B,2 B,3 B, | [F,,F,A,]6 [F,,F,C]6 | =B,2 B,2 B,2 B,2 B,3 B, | [C,,C,B,]12 | %8
 C2 B,2 D2 C2 A,3 B, | [C,,C,A,]6 [C,,C,A,]6 | D2 D2 D2 D2 E3 D | [F,,F,C]12 | %12
 B,2 B,2 B,2 B,2 B,3 B, | [F,,F,A,]6 [F,,F,C]6 | A,2 A,2 A,2 F,2 A,3 B, | [F,,F,A,]12 |] %16
V:3
 [F,,F,]6 [F,,F,]6 | x12 | [C,,C,]6 [C,,C,]6 | x12 | [B,,,B,,]6 [B,,,B,,]6 | x12 | %6
 [G,,G,]6 [G,,G,]6 | x12 | [F,,F,]6 [F,,F,]6 | x12 | [C,,C,]6 [C,,C,]6 | x12 | %12
 [B,,,B,,]6 [B,,,B,,]6 | x12 | C,6 C,6 | x12 |] %16

